dist/img/svg/header_cart.svg

<svg xmlns="http://www.w3.org/2000/svg" width="22" height="23" viewBox="0 0 22 23">
    <path d="M17.2015 3.43538C16.9144 2.57415 16.1159 2 15.2099 2H7.33322C6.42713 2 5.62871 2.57415 5.34163 3.43538L3.90625 7.70563H5.80813L7.04614 4.00953C7.091 3.88394 7.19865 3.8032 7.33322 3.8032H15.2099C15.3355 3.8032 15.4521 3.88394 15.4969 4.00953L16.726 7.70563H18.6279L17.2015 3.43538Z"/>
    <path d="M21.1851 9.50781H1.35888C1.02695 9.50781 0.757812 9.77695 0.757812 10.1089V13.1142C0.757812 13.4461 1.02695 13.7153 1.35888 13.7153H2.39056L3.61063 21.7085C3.70034 22.2917 4.20272 22.7312 4.79482 22.7312H17.7491C18.3412 22.7312 18.8436 22.3006 18.9333 21.7085L20.1534 13.7153H21.1851C21.517 13.7153 21.7861 13.4461 21.7861 13.1142V10.1089C21.7861 9.77695 21.517 9.50781 21.1851 9.50781ZM7.96162 19.4209C7.96162 19.9143 7.55792 20.318 7.06451 20.318C6.5711 20.318 6.1674 19.9143 6.1674 19.4209V15.5185C6.1674 15.0251 6.5711 14.6214 7.06451 14.6214C7.55792 14.6214 7.96162 15.0251 7.96162 15.5185V19.4209ZM12.1691 19.4209C12.1691 19.9143 11.7654 20.318 11.272 20.318C10.7786 20.318 10.3749 19.9143 10.3749 19.4209V15.5185C10.3749 15.0251 10.7786 14.6214 11.272 14.6214C11.7654 14.6214 12.1691 15.0251 12.1691 15.5185V19.4209ZM16.3765 19.4209C16.3765 19.9143 15.9728 20.318 15.4794 20.318C14.986 20.318 14.5823 19.9143 14.5823 19.4209V15.5185C14.5823 15.0251 14.986 14.6214 15.4794 14.6214C15.9728 14.6214 16.3765 15.0251 16.3765 15.5185V19.4209Z"/>
    <path d="M19.5365 0H21.4238V8.5591H19.0196V3.58232H17V1.9835L17.1923 1.97148C17.8415 1.93141 18.3544 1.76311 18.7311 1.46659C19.1077 1.16205 19.3762 0.673187 19.5365 0Z" fill="white"/>
</svg>

<svg xmlns="http://www.w3.org/2000/svg" width="22" height="23" viewBox="0 0 22 23"><path d="M17.201 3.435A2.093 2.093 0 0015.21 2H7.333c-.906 0-1.704.574-1.991 1.435l-1.436 4.27h1.902L7.046 4.01a.299.299 0 01.287-.207h7.877c.125 0 .242.08.287.207l1.229 3.696h1.902L17.2 3.436zm3.984 6.073H1.36a.601.601 0 00-.601.6v3.006a.6.6 0 00.6.601h1.033l1.22 7.994c.09.583.592 1.022 1.184 1.022H17.75c.592 0 1.095-.43 1.184-1.023l1.22-7.993h1.032a.6.6 0 00.601-.6v-3.006a.601.601 0 00-.6-.601zM7.962 19.42a.9.9 0 01-.897.897.9.9 0 01-.898-.897v-3.902a.9.9 0 01.898-.898.9.9 0 01.897.897v3.903zm4.207 0a.9.9 0 01-.897.897.9.9 0 01-.897-.897v-3.902a.9.9 0 01.897-.898.9.9 0 01.897.897v3.903zm4.207 0a.9.9 0 01-.897.897.9.9 0 01-.897-.897v-3.902a.9.9 0 01.897-.898.9.9 0 01.898.897v3.903z"/><path d="M19.537 0h1.887v8.56H19.02V3.581H17V1.984l.192-.013c.65-.04 1.162-.208 1.54-.504.376-.305.644-.794.805-1.467z" fill="#fff"/></svg>
